neru-dark-classic/22x22/status/my-caffeine-off-symbolic.svg

<?xml version="1.0" encoding="UTF-8" standalone="no"?>
<svg
   xmlns:dc="http://purl.org/dc/elements/1.1/"
   xmlns:cc="http://creativecommons.org/ns#"
   xmlns:rdf="http://www.w3.org/1999/02/22-rdf-syntax-ns#"
   xmlns:svg="http://www.w3.org/2000/svg"
   xmlns="http://www.w3.org/2000/svg"
   xmlns:sodipodi="http://sodipodi.sourceforge.net/DTD/sodipodi-0.dtd"
   xmlns:inkscape="http://www.inkscape.org/namespaces/inkscape"
   width="22"
   height="22"
   version="1.1"
   id="svg4"
   sodipodi:docname="my-caffeine-off-symbolic.svg"
   inkscape:version="0.92.1 r">
  <metadata
     id="metadata10">
    <rdf:RDF>
      <cc:Work
         rdf:about="">
        <dc:format>image/svg+xml</dc:format>
        <dc:type
           rdf:resource="http://purl.org/dc/dcmitype/StillImage" />
      </cc:Work>
    </rdf:RDF>
  </metadata>
  <defs
     id="defs8" />
  <sodipodi:namedview
     pagecolor="#ffffff"
     bordercolor="#666666"
     borderopacity="1"
     objecttolerance="10"
     gridtolerance="10"
     guidetolerance="10"
     inkscape:pageopacity="0"
     inkscape:pageshadow="2"
     inkscape:window-width="769"
     inkscape:window-height="480"
     id="namedview6"
     showgrid="false"
     inkscape:zoom="10.727273"
     inkscape:cx="8.0060785"
     inkscape:cy="11"
     inkscape:window-x="0"
     inkscape:window-y="0"
     inkscape:window-maximized="0"
     inkscape:current-layer="svg4" />
  <path
     style="fill:#d1d9e3"
     d="M 7,6 C 4.7909,6 3,7.79 3,10 3,12.21 4.7909,14 7,14 7.2425,14 7.4843,13.98 7.7227,13.93 8.462,15.48 9.958,16 13,16 19,16 19,14 19,6 Z M 7,8 H 7.0078 C 7.0194,9.6 7.06,10.94 7.2031,11.99 7.1357,11.99 7.0679,12 7,12 5.8954,12 5,11.1 5,10 5,8.9 5.8954,8 7,8 Z"
     id="path2"
     inkscape:connector-curvature="0" />
</svg>

<svg xmlns="http://www.w3.org/2000/svg" width="22" height="22"><path d="M7 6a4 4 0 1 0 0 8c.242 0 .484-.02.723-.07C8.462 15.48 9.958 16 13 16c6 0 6-2 6-10zm0 2h.008c.011 1.6.052 2.94.195 3.99-.067 0-.135.01-.203.01-1.105 0-2-.9-2-2s.895-2 2-2z" fill="#d1d9e3"/></svg>
